;FLAVOR:UltiGCode
;TIME:5075
;MATERIAL:11818
;MATERIAL2:0
;NOZZLE_DIAMETER:0.6
;MINX:70.428
;MINY:89.294
;MINZ:0.4
;MAXX:151.866
;MAXY:133.706
;MAXZ:19
;Generated with Cura_SteamEngine 4.8.0
M82 ;absolute extrusion mode
G0 F3000 Y50 ;avoid prime blob
G92 E0
G92 E0
G10
;LAYER_COUNT:125
;LAYER:0
M107
G0 F3927.3 X74.801 Y91.277 Z0.4
;TYPE:SKIRT
G11
G1 F1800 X75.472 Y90.822 E0.17187
G1 X76.184 Y90.436 E0.34357
G1 X76.931 Y90.122 E0.51536
G1 X77.705 Y89.883 E0.68709
G1 X78.499 Y89.721 E0.85889
G1 X79.306 Y89.638 E1.03087
G1 X80.116 Y89.636 E1.20259
G1 X80.923 Y89.713 E1.37445
G1 X81.544 Y89.835 E1.50862
G1 X82.341 Y89.9 E1.67815
G1 X83.138 Y90.044 E1.84985
G1 X83.917 Y90.267 E2.02163
G1 X84.671 Y90.565 E2.19351
G1 X85.159 Y90.817 E2.30994
G1 X85.352 Y90.674 E2.36087
G1 X86.048 Y90.258 E2.53277
G1 X86.781 Y89.913 E2.70451
G1 X87.545 Y89.642 E2.87637
G1 X88.331 Y89.447 E3.04805
G1 X89.133 Y89.331 E3.21985
G1 X89.909 Y89.294 E3.38455
G1 X92.054 Y89.294 E3.83929
G1 X92.863 Y89.334 E4.011
G1 X93.665 Y89.454 E4.18292
G1 X94.451 Y89.651 E4.35471
G1 X95.213 Y89.926 E4.52645
G1 X95.945 Y90.274 E4.69828
G1 X96.364 Y90.527 E4.80204
G1 X96.473 Y90.455 E4.82974
G1 X97.189 Y90.075 E5.00158
G1 X97.939 Y89.767 E5.17347
G1 X98.715 Y89.535 E5.34517
G1 X99.51 Y89.38 E5.51689
G1 X100.68 Y89.296 E5.76557
G1 X121.359 Y89.294 E10.14951
G1 X122.169 Y89.334 E10.32144
G1 X122.97 Y89.453 E10.49312
G1 X123.756 Y89.651 E10.66496
G1 X124.519 Y89.926 E10.8369
G1 X125.251 Y90.274 E11.00873
G1 X125.673 Y90.528 E11.11315
G1 X126.126 Y90.258 E11.22495
G1 X126.859 Y89.913 E11.39669
G1 X127.623 Y89.642 E11.56855
G1 X128.409 Y89.447 E11.74023
G1 X129.211 Y89.331 E11.91203
G1 X129.987 Y89.294 E12.07673
G1 X132.973 Y89.294 E12.70976
G1 X133.782 Y89.334 E12.88147
G1 X134.584 Y89.454 E13.05339
G1 X135.37 Y89.651 E13.22518
G1 X136.132 Y89.926 E13.39692
G1 X136.864 Y90.274 E13.56875
G1 X137.311 Y90.544 E13.67946
G1 X137.718 Y90.299 E13.78017
G1 X138.45 Y89.951 E13.952
G1 X139.212 Y89.677 E14.12367
G1 X139.998 Y89.479 E14.29551
G1 X140.8 Y89.36 E14.46739
G1 X141.609 Y89.32 E14.63911
G1 X142.419 Y89.36 E14.81104
G1 X143.22 Y89.48 E14.98274
G1 X144.006 Y89.678 E15.15458
G1 X144.769 Y89.953 E15.32652
G1 X145.5 Y90.301 E15.49816
G1 X145.955 Y90.565 E15.60968
G1 X146.282 Y90.769 E15.69139
G1 X146.948 Y91.231 E15.86323
G1 X147.703 Y91.89 E16.07568
G1 X148.067 Y92.249 E16.18407
G1 X148.615 Y92.846 E16.35587
G1 X149.235 Y93.698 E16.57926
G1 X149.49 Y94.1 E16.68018
G1 X149.89 Y94.805 E16.85202
G1 X150.272 Y95.688 E17.05598
G1 X150.492 Y96.292 E17.19226
G1 X150.596 Y96.572 E17.25558
G1 X150.792 Y97.17 E17.38899
G1 X150.948 Y97.707 E17.50754
G1 X151.505 Y99.9 E17.98722
G1 X151.634 Y100.487 E18.11464
G1 X151.726 Y100.979 E18.22075
G1 X151.836 Y101.782 E18.39257
G1 X151.866 Y102.489 E18.54259
G1 X151.866 Y120.447 E22.34969
G1 X151.822 Y121.296 E22.52992
G1 X151.814 Y121.373 E22.54633
G1 X151.741 Y121.905 E22.66017
G1 X151.674 Y122.298 E22.74469
G1 X151.537 Y122.946 E22.8851
G1 X150.946 Y125.265 E23.39244
G1 X150.781 Y125.827 E23.51662
G1 X150.434 Y126.871 E23.74985
G1 X149.989 Y127.947 E23.9967
G1 X149.779 Y128.368 E24.09644
G1 X149.309 Y129.189 E24.29699
G1 X149.279 Y129.235 E24.30864
G1 X148.709 Y130.006 E24.51191
G1 X148.389 Y130.39 E24.61788
G1 X147.84 Y130.986 E24.78966
G1 X147.235 Y131.526 E24.96158
G1 X146.865 Y131.807 E25.06008
G1 X146.395 Y132.144 E25.18269
G1 X145.714 Y132.583 E25.35446
G1 X144.993 Y132.953 E25.52626
G1 X144.239 Y133.25 E25.69806
G1 X143.459 Y133.472 E25.86999
G1 X142.661 Y133.615 E26.04186
G1 X141.854 Y133.679 E26.21348
G1 X141.043 Y133.664 E26.38544
G1 X140.239 Y133.568 E26.5571
G1 X139.447 Y133.394 E26.72901
G1 X138.677 Y133.142 E26.90077
G1 X137.935 Y132.816 E27.07259
G1 X137.305 Y132.461 E27.22589
G1 X136.835 Y132.742 E27.34198
G1 X136.102 Y133.087 E27.51373
G1 X135.338 Y133.358 E27.68559
G1 X134.552 Y133.553 E27.85727
G1 X133.75 Y133.669 E28.02906
G1 X132.974 Y133.706 E28.19376
G1 X129.987 Y133.706 E28.82701
G1 X129.178 Y133.666 E28.99872
G1 X128.376 Y133.546 E29.17064
G1 X127.59 Y133.349 E29.34243
G1 X126.828 Y133.074 E29.51417
G1 X126.096 Y132.726 E29.686
G1 X125.677 Y132.473 E29.78976
G1 X125.568 Y132.545 E29.81746
G1 X124.852 Y132.925 E29.9893
G1 X124.102 Y133.233 E30.16119
G1 X123.326 Y133.465 E30.33289
G1 X122.531 Y133.62 E30.50461
G1 X121.361 Y133.704 E30.75329
G1 X100.682 Y133.706 E35.13723
G1 X99.872 Y133.666 E35.30916
G1 X99.071 Y133.547 E35.48084
G1 X98.285 Y133.349 E35.65268
G1 X97.522 Y133.074 E35.82462
G1 X96.79 Y132.726 E35.99645
G1 X96.368 Y132.472 E36.10087
G1 X95.915 Y132.742 E36.21267
G1 X95.182 Y133.087 E36.38441
G1 X94.418 Y133.358 E36.55627
G1 X93.632 Y133.553 E36.72795
G1 X92.83 Y133.669 E36.89975
G1 X92.054 Y133.706 E37.06445
G1 X89.91 Y133.706 E37.51897
G1 X89.101 Y133.666 E37.69069
G1 X88.299 Y133.546 E37.86261
G1 X87.513 Y133.349 E38.03439
G1 X86.751 Y133.074 E38.20614
G1 X86.019 Y132.726 E38.37796
G1 X85.325 Y132.307 E38.54983
G1 X85.096 Y132.136 E38.61042
G1 X84.371 Y132.474 E38.78
G1 X83.606 Y132.742 E38.95184
G1 X82.818 Y132.934 E39.12379
G1 X82.016 Y133.046 E39.29546
G1 X81.206 Y133.08 E39.46733
G1 X80.397 Y133.033 E39.63913
G1 X79.596 Y132.907 E39.81103
G1 X78.812 Y132.702 E39.98283
G1 X78.052 Y132.422 E40.15453
G1 X77.323 Y132.067 E40.32643
G1 X76.632 Y131.643 E40.4983
G1 X75.987 Y131.153 E40.67003
G1 X75.393 Y130.601 E40.84193
G1 X74.963 Y130.124 E40.97808
G1 X74.923 Y130.076 E40.99133
G1 X74.506 Y129.531 E41.13681
G1 X74.13 Y128.995 E41.27561
G1 X73.994 Y128.83 E41.32094
G1 X73.511 Y128.179 E41.49279
G1 X73.094 Y127.484 E41.66462
G1 X72.703 Y126.642 E41.86143
G1 X72.506 Y126.146 E41.97457
G1 X72.245 Y125.379 E42.14633
G1 X72.124 Y124.907 E42.24963
G1 X72.007 Y124.384 E42.36325
G1 X71.869 Y123.586 E42.53494
G1 X71.768 Y123.202 E42.61911
G1 X71.618 Y122.624 E42.74571
G1 X71.533 Y122.222 E42.83282
G1 X71.059 Y119.709 E43.37497
G1 X70.967 Y119.09 E43.50764
G1 X70.902 Y118.503 E43.63284
G1 X70.842 Y117.833 E43.77545
G1 X70.667 Y115.671 E44.23529
G1 X70.573 Y114.557 E44.4723
G1 X70.546 Y114.057 E44.57845
G1 X70.541 Y113.741 E44.64545
G1 X70.539 Y109.726 E45.49663
G1 X70.55 Y109.29 E45.5891
G1 X70.609 Y108.19 E45.82263
G1 X70.688 Y106.96 E46.08393
G1 X70.746 Y106.153 E46.25545
G1 X70.839 Y105.267 E46.44432
G1 X70.959 Y104.448 E46.6198
G1 X70.791 Y103.983 E46.72462
G1 X70.591 Y103.197 E46.89656
G1 X70.47 Y102.396 E47.0683
G1 X70.428 Y101.587 E47.24004
G1 X70.493 Y100.539 E47.46264
G1 X70.685 Y99.02 E47.78723
G1 X70.826 Y98.222 E47.95903
G1 X70.94 Y97.781 E48.05559
G1 X71.13 Y97.12 E48.2014
G1 X71.392 Y96.353 E48.37323
G1 X71.566 Y95.946 E48.46706
G1 X72.28 Y94.399 E48.82827
G1 X72.656 Y93.681 E49.0001
G1 X73.1 Y93.004 E49.17174
G1 X73.609 Y92.373 E49.34361
G1 X74.178 Y91.796 E49.5154
G1 X74.801 Y91.277 E49.6873
G0 F3927.3 X75.223 Y91.624
G1 F1800 X75.88 Y91.196 E49.85354
G1 X76.577 Y90.838 E50.01965
G1 X77.306 Y90.552 E50.18567
G1 X78.062 Y90.342 E50.35201
G1 X78.834 Y90.21 E50.51805
G1 X79.616 Y90.158 E50.6842
G1 X80.4 Y90.185 E50.8505
G1 X81.176 Y90.293 E51.0166
G1 X81.498 Y90.371 E51.08684
G1 X81.696 Y90.372 E51.12882
G1 X82.476 Y90.455 E51.29511
G1 X83.243 Y90.616 E51.46126
G1 X83.989 Y90.856 E51.62739
G1 X84.707 Y91.17 E51.79353
G1 X85.198 Y91.447 E51.91304
G1 X85.689 Y91.086 E52.04224
G1 X86.365 Y90.69 E52.20833
G1 X87.078 Y90.364 E52.37454
G1 X87.821 Y90.113 E52.5408
G1 X88.585 Y89.939 E52.70692
G1 X89.363 Y89.843 E52.8731
G1 X89.909 Y89.824 E52.98892
G1 X92.054 Y89.824 E53.44366
G1 X92.837 Y89.864 E53.60988
G1 X93.611 Y89.983 E53.77589
G1 X94.37 Y90.181 E53.94219
G1 X95.104 Y90.455 E54.10828
G1 X95.807 Y90.803 E54.27458
G1 X96.366 Y91.154 E54.41451
G1 X96.99 Y90.77 E54.56984
G1 X97.696 Y90.429 E54.73606
G1 X98.433 Y90.162 E54.90224
G1 X99.193 Y89.971 E55.06837
G1 X99.969 Y89.859 E55.23459
G1 X100.68 Y89.826 E55.38548
G1 X121.359 Y89.824 E59.76943
G1 X122.142 Y89.864 E59.93564
G1 X122.917 Y89.983 E60.10187
G1 X123.675 Y90.181 E60.26796
G1 X124.41 Y90.455 E60.43425
G1 X125.112 Y90.802 E60.60026
G1 X125.674 Y91.155 E60.74096
G1 X125.767 Y91.086 E60.76551
G1 X126.443 Y90.69 E60.9316
G1 X127.156 Y90.364 E61.09781
G1 X127.899 Y90.113 E61.26407
G1 X128.663 Y89.939 E61.43018
G1 X129.441 Y89.843 E61.59637
G1 X129.987 Y89.824 E61.71219
G1 X132.973 Y89.824 E62.34523
G1 X133.756 Y89.864 E62.51144
G1 X134.53 Y89.983 E62.67745
G1 X135.289 Y90.181 E62.84375
G1 X136.023 Y90.455 E63.00984
G1 X136.726 Y90.803 E63.17614
G1 X137.313 Y91.172 E63.32313
G1 X137.535 Y91.017 E63.38053
G1 X138.22 Y90.636 E63.5467
G1 X138.941 Y90.327 E63.713
G1 X139.689 Y90.093 E63.87915
G1 X140.457 Y89.937 E64.0453
G1 X141.237 Y89.859 E64.21148
G1 X142.021 Y89.861 E64.37769
G1 X142.8 Y89.943 E64.54375
G1 X143.567 Y90.104 E64.7099
G1 X144.314 Y90.343 E64.87617
G1 X145.033 Y90.656 E65.04241
G1 X145.675 Y91.015 E65.19835
G1 X146.002 Y91.219 E65.28006
G1 X146.645 Y91.667 E65.4462
G1 X147.33 Y92.267 E65.63925
G1 X147.694 Y92.626 E65.74764
G1 X148.224 Y93.205 E65.91404
G1 X148.788 Y93.982 E66.11759
G1 X149.043 Y94.384 E66.21851
G1 X149.428 Y95.066 E66.38454
G1 X149.774 Y95.87 E66.57011
G1 X149.994 Y96.474 E66.70638
G1 X150.093 Y96.737 E66.76596
G1 X150.289 Y97.335 E66.89937
G1 X150.434 Y97.837 E67.01015
G1 X150.991 Y100.03 E67.48982
G1 X151.113 Y100.584 E67.61009
G1 X151.205 Y101.076 E67.7162
G1 X151.31 Y101.853 E67.88242
G1 X151.336 Y102.489 E68.01736
G1 X151.336 Y120.447 E71.82446
G1 X151.295 Y121.241 E71.99301
G1 X151.287 Y121.318 E72.00942
G1 X151.219 Y121.816 E72.11598
G1 X151.152 Y122.209 E72.2005
G1 X151.023 Y122.815 E72.33185
G1 X150.432 Y125.134 E72.83919
G1 X150.278 Y125.66 E72.95538
G1 X149.931 Y126.704 E73.18862
G1 X149.515 Y127.71 E73.4194
G1 X149.305 Y128.131 E73.51914
G1 X148.865 Y128.899 E73.70679
G1 X148.835 Y128.945 E73.71843
G1 X148.302 Y129.667 E73.90868
G1 X147.982 Y130.051 E74.01465
G1 X147.45 Y130.627 E74.18088
G1 X146.556 Y131.376 E74.42813
G1 X146.086 Y131.713 E74.55074
G1 X145.427 Y132.137 E74.71687
G1 X144.727 Y132.491 E74.88317
G1 X143.996 Y132.773 E75.04927
G1 X143.239 Y132.978 E75.21553
G1 X142.466 Y133.105 E75.38161
G1 X141.683 Y133.153 E75.54791
G1 X140.9 Y133.12 E75.71406
G1 X140.124 Y133.008 E75.88027
G1 X139.364 Y132.818 E76.04635
G1 X138.627 Y132.551 E76.21253
G1 X137.921 Y132.211 E76.37866
G1 X137.305 Y131.832 E76.53199
G1 X137.194 Y131.914 E76.56124
G1 X136.518 Y132.31 E76.72734
G1 X135.805 Y132.636 E76.89354
G1 X135.062 Y132.887 E77.0598
G1 X134.298 Y133.061 E77.22592
G1 X133.52 Y133.157 E77.39211
G1 X132.974 Y133.176 E77.50793
G1 X129.987 Y133.176 E78.14117
G1 X129.204 Y133.136 E78.30738
G1 X128.43 Y133.017 E78.4734
G1 X127.671 Y132.819 E78.63969
G1 X126.937 Y132.545 E78.80579
G1 X126.234 Y132.197 E78.97209
G1 X125.675 Y131.846 E79.11202
G1 X125.051 Y132.23 E79.26735
G1 X124.345 Y132.571 E79.43357
G1 X123.608 Y132.838 E79.59975
G1 X122.848 Y133.029 E79.76588
G1 X122.072 Y133.141 E79.93209
G1 X121.361 Y133.174 E80.08299
G1 X100.682 Y133.176 E84.46694
G1 X99.899 Y133.136 E84.63315
G1 X99.124 Y133.017 E84.79937
G1 X98.366 Y132.819 E84.96546
G1 X97.631 Y132.545 E85.13176
G1 X96.929 Y132.198 E85.29777
G1 X96.367 Y131.845 E85.43847
G1 X96.274 Y131.914 E85.46302
G1 X95.598 Y132.31 E85.62911
G1 X94.885 Y132.636 E85.79532
G1 X94.142 Y132.887 E85.96158
G1 X93.378 Y133.061 E86.12769
G1 X92.6 Y133.157 E86.29388
G1 X92.054 Y133.176 E86.4097
G1 X89.91 Y133.176 E86.86423
G1 X89.127 Y133.136 E87.03044
G1 X88.353 Y133.017 E87.19646
G1 X87.594 Y132.819 E87.36275
G1 X86.86 Y132.545 E87.52885
G1 X86.157 Y132.197 E87.69514
G1 X85.493 Y131.78 E87.86137
G1 X85.136 Y131.501 E87.95742
G1 X84.605 Y131.79 E88.08559
G1 X83.883 Y132.094 E88.25167
G1 X83.133 Y132.322 E88.41785
G1 X82.363 Y132.472 E88.58416
G1 X81.583 Y132.544 E88.75022
G1 X80.799 Y132.535 E88.91644
G1 X80.02 Y132.447 E89.08264
G1 X79.254 Y132.28 E89.24885
G1 X78.51 Y132.036 E89.41484
G1 X77.794 Y131.717 E89.58102
G1 X77.114 Y131.327 E89.7472
G1 X76.477 Y130.869 E89.91353
G1 X75.891 Y130.349 E90.07962
G1 X75.37 Y129.785 E90.2424
G1 X75.33 Y129.737 E90.25565
G1 X74.94 Y129.227 E90.39176
G1 X74.55 Y128.671 E90.53573
G1 X74.404 Y128.493 E90.58454
G1 X73.937 Y127.863 E90.75079
G1 X73.537 Y127.189 E90.91695
G1 X73.196 Y126.447 E91.09007
G1 X72.999 Y125.951 E91.20321
G1 X72.747 Y125.208 E91.36954
G1 X72.641 Y124.792 E91.46055
G1 X72.524 Y124.269 E91.57417
G1 X72.392 Y123.496 E91.74042
G1 X72.276 Y123.05 E91.83811
G1 X72.136 Y122.51 E91.95638
G1 X72.054 Y122.123 E92.04024
G1 X71.58 Y119.61 E92.58239
G1 X71.494 Y119.032 E92.70628
G1 X71.429 Y118.445 E92.83148
G1 X71.366 Y117.743 E92.98091
G1 X71.193 Y115.598 E93.43712
G1 X71.101 Y114.512 E93.66818
G1 X71.073 Y113.916 E93.79467
G1 X71.071 Y113.741 E93.83177
G1 X71.069 Y109.726 E94.68295
G1 X71.08 Y109.318 E94.76948
G1 X71.138 Y108.224 E95.00173
G1 X71.217 Y106.996 E95.26261
G1 X71.274 Y106.201 E95.43158
G1 X71.364 Y105.344 E95.61426
G1 X71.503 Y104.401 E95.81634
G1 X71.469 Y104.325 E95.83399
G1 X71.226 Y103.58 E96.00012
G1 X71.06 Y102.814 E96.16628
G1 X70.972 Y102.035 E96.33248
G1 X70.965 Y101.251 E96.4987
G1 X71.019 Y100.605 E96.63612
G1 X71.211 Y99.086 E96.96071
G1 X71.348 Y98.315 E97.12673
G1 X71.449 Y97.927 E97.21172
G1 X71.639 Y97.266 E97.35753
G1 X72.047 Y96.169 E97.60566
G1 X72.761 Y94.622 E97.96687
G1 X73.126 Y93.928 E98.1331
G1 X73.559 Y93.274 E98.29939
G1 X74.056 Y92.668 E98.46554
G1 X74.613 Y92.117 E98.63164
G1 X75.223 Y91.624 E98.79791
G0 F3927.3 X75.642 Y91.976
G1 F1800 X76.284 Y91.576 E98.95827
G1 X76.965 Y91.247 E99.11861
G1 X77.677 Y90.991 E99.27901
G1 X78.412 Y90.811 E99.43944
G1 X79.161 Y90.71 E99.59966
G1 X79.917 Y90.689 E99.76
G1 X80.671 Y90.748 E99.92033
G1 X81.415 Y90.886 E100.08075
G1 X81.853 Y90.913 E100.17379
G1 X82.602 Y91.014 E100.33401
G1 X83.337 Y91.194 E100.49444
G1 X84.049 Y91.45 E100.65484
G1 X84.729 Y91.78 E100.81508
G1 X85.241 Y92.098 E100.94285
G1 X85.412 Y91.944 E100.99164
G1 X86.025 Y91.5 E101.1521
G1 X86.68 Y91.124 E101.31222
G1 X87.372 Y90.819 E101.47254
G1 X88.093 Y90.588 E101.63304
G1 X88.834 Y90.435 E101.79345
G1 X89.909 Y90.354 E102.022
G1 X92.054 Y90.354 E102.47674
G1 X92.809 Y90.394 E102.63702
G1 X93.556 Y90.513 E102.79738
G1 X94.286 Y90.711 E102.95773
G1 X94.991 Y90.985 E103.11808
G1 X95.663 Y91.331 E103.27832
G1 X96.295 Y91.747 E103.43873
G1 X96.369 Y91.81 E103.45933
G1 X96.845 Y91.471 E103.58322
G1 X97.504 Y91.1 E103.74354
G1 X98.198 Y90.801 E103.90375
G1 X98.921 Y90.576 E104.06427
G1 X99.662 Y90.429 E104.22443
G1 X100.68 Y90.356 E104.4408
G1 X121.359 Y90.354 E108.82474
G1 X122.115 Y90.394 E108.98524
G1 X122.861 Y90.513 E109.14539
G1 X123.591 Y90.711 E109.30574
G1 X124.297 Y90.984 E109.46622
G1 X124.969 Y91.331 E109.62655
G1 X125.601 Y91.746 E109.78684
G1 X125.677 Y91.809 E109.80777
G1 X126.103 Y91.5 E109.91934
G1 X126.758 Y91.124 E110.07945
G1 X127.45 Y90.819 E110.23977
G1 X128.171 Y90.588 E110.40028
G1 X128.912 Y90.435 E110.56068
G1 X129.987 Y90.354 E110.78923
G1 X132.973 Y90.354 E111.42226
G1 X133.728 Y90.394 E111.58254
G1 X134.475 Y90.513 E111.74291
G1 X135.205 Y90.711 E111.90326
G1 X135.91 Y90.985 E112.06361
G1 X136.582 Y91.331 E112.22385
G1 X137.214 Y91.747 E112.38425
G1 X137.305 Y91.825 E112.40966
G1 X137.409 Y91.741 E112.438
G1 X138.044 Y91.33 E112.59836
G1 X138.719 Y90.989 E112.75868
G1 X139.426 Y90.721 E112.91897
G1 X140.157 Y90.528 E113.07926
G1 X140.905 Y90.415 E113.23963
G1 X141.661 Y90.38 E113.40008
G1 X142.416 Y90.426 E113.56043
G1 X143.161 Y90.551 E113.72058
G1 X143.89 Y90.754 E113.88101
G1 X144.593 Y91.033 E114.04135
G1 X145.394 Y91.464 E114.23419
G1 X145.721 Y91.668 E114.3159
G1 X146.341 Y92.102 E114.47634
G1 X146.958 Y92.645 E114.65058
G1 X147.322 Y93.004 E114.75897
G1 X147.832 Y93.563 E114.91939
G1 X148.34 Y94.265 E115.10309
G1 X148.595 Y94.667 E115.20401
G1 X148.966 Y95.327 E115.36452
G1 X149.276 Y96.051 E115.53149
G1 X149.496 Y96.655 E115.66777
G1 X149.589 Y96.903 E115.72392
G1 X149.785 Y97.501 E115.85733
G1 X149.921 Y97.968 E115.96045
G1 X150.478 Y100.161 E116.44013
G1 X150.592 Y100.682 E116.55319
G1 X150.684 Y101.174 E116.6593
G1 X150.784 Y101.924 E116.81971
G1 X150.806 Y102.489 E116.93958
G1 X150.806 Y120.447 E120.74668
